X:1
T:Title
%%score { 1 | 2 }
L:1/8
M:3/4
K:Bb
V:1 treble nm="Grand Piano"
V:2 bass 
V:1
 z2 z2[Q:1/4=100] [DB]>[Ec] | [Fd]3 [Ec] [DB][EG] | [DF][B,D] [B,DF]3 [B,F] | %3
 [B,EG]3 [EFA] [DFB][Fc] | [Fd]4 [DB]>[Ec] | [Fd]3 [Ec] [DB][EG] | [DF]D F2 B>c | d3 B dc | %8
[M:2/4] [DB]4 |] %9
V:2
 z2 z2 [B,,F,]2 | [B,,B,]3 [B,,B,] [B,,B,][B,,B,] | [B,,B,]B,, B,,3 D, | E,3 C, B,,[F,A,] | %4
 [B,,B,]4 [B,,F,]2 | [B,,B,]3 [B,,B,] [B,,B,][B,,B,] | [B,,B,]B, [A,C]2 [G,B,=E]2 | %7
 [F,B,F]3 [F,B,D] [F,A,F][F,A,E] |[M:2/4] [B,,B,]4 |] %9

